svg/part/incognito_mode_line.svg

<?xml version="1.0" encoding="UTF-8"?>
<svg width="24px" height="24px" viewBox="0 0 24 24" version="1.1" xmlns="http://www.w3.org/2000/svg" xmlns:xlink="http://www.w3.org/1999/xlink">
    <title>incognito_mode_line</title>
    <g id="Icon" stroke="none" stroke-width="1" fill="none" fill-rule="evenodd">
        <g id="Part" transform="translate(-144.000000, -192.000000)">
            <g id="incognito_mode_line" transform="translate(144.000000, 192.000000)">
                <path d="M24,0 L24,24 L0,24 L0,0 L24,0 Z M12.5935,23.2578 L12.5819,23.2595 L12.5109,23.295 L12.4919,23.2987 L12.4767,23.295 L12.4057,23.2595 C12.3958,23.2564 12.387,23.259 12.3821,23.2649 L12.378,23.2758 L12.3609,23.7031 L12.3659,23.7235 L12.3769,23.7357 L12.4805,23.8097 L12.4953,23.8136 L12.5071,23.8097 L12.6107,23.7357 L12.6233,23.7197 L12.6267,23.7031 L12.6096,23.2758 C12.6076,23.2657 12.601,23.2593 12.5935,23.2578 Z M12.8584,23.1453 L12.8445,23.1473 L12.6598,23.2397 L12.6499,23.2499 L12.6472,23.2611 L12.6651,23.6906 L12.6699,23.7034 L12.6784,23.7105 L12.8793,23.8032 C12.8914,23.8069 12.9022,23.803 12.9078,23.7952 L12.9118,23.7812 L12.8777,23.1665 C12.8753,23.1546 12.8674,23.147 12.8584,23.1453 Z M12.143,23.1473 C12.1332,23.1424 12.1222,23.1453 12.1156,23.1526 L12.1099,23.1665 L12.0758,23.7812 C12.0751,23.7927 12.0828,23.8019 12.0926,23.8046 L12.1083,23.8032 L12.3092,23.7105 L12.3186,23.7024 L12.3225,23.6906 L12.3404,23.2611 L12.3372,23.2485 L12.3278,23.2397 L12.143,23.1473 Z" id="MingCute" fill-rule="nonzero"></path>
                <path d="M17,13 C19.2091,13 21,14.7909 21,17 C21,19.2091 19.2091,21 17,21 C14.7909,21 13,19.2091 13,17 L11,17 C11,19.2091 9.20914,21 7,21 C4.79086,21 3,19.2091 3,17 C3,14.7909 4.79086,13 7,13 C8.48056,13 9.77325,13.8044 10.4649,15 L13.5351,15 C14.2267,13.8044 15.5194,13 17,13 Z M7,15 C5.89543,15 5,15.8954 5,17 C5,18.1046 5.89543,19 7,19 C8.10457,19 9,18.1046 9,17 C9,15.8954 8.10457,15 7,15 Z M17,15 C15.8954,15 15,15.8954 15,17 C15,18.1046 15.8954,19 17,19 C18.1046,19 19,18.1046 19,17 C19,15.8954 18.1046,15 17,15 Z M15.3057,3 C16.7111917,3 17.9191349,3.97372736 18.2295575,5.32804083 L18.2649,5.5068 L18.9864,9.8356 L18.9967125,9.9181825 L18.9967125,9.9181825 L19.0002,10 L20,10 C20.5523,10 21,10.4477 21,11 C21,11.51285 20.613973,11.9355092 20.1166239,11.9932725 L20,12 L4,12 C3.44772,12 3,11.5523 3,11 C3,10.48715 3.38604429,10.0644908 3.88337975,10.0067275 L4,10 L4.99984,10 L5.0032975,9.9181825 L5.0032975,9.9181825 L5.01361,9.8356 L5.73507,5.5068 C5.96612417,4.12051333 7.12519679,3.08902403 8.51211328,3.00547333 L8.69425,3 L15.3057,3 Z M15.3057,5 L8.69425,5 C8.20541,5 7.78823,5.35341 7.70786,5.8356 L7.01379,10 L16.9862,10 L16.2921,5.8356 C16.2118,5.35341 15.7946,5 15.3057,5 Z" id="形状" fill="#09244B"></path>
            </g>
        </g>
    </g>
</svg>

<svg xmlns="http://www.w3.org/2000/svg" width="24" height="24"><g fill="none" fill-rule="evenodd"><path d="M24 0v24H0V0h24ZM12.594 23.258l-.012.002-.071.035-.02.004-.014-.004-.071-.036c-.01-.003-.019 0-.024.006l-.004.01-.017.428.005.02.01.013.104.074.015.004.012-.004.104-.074.012-.016.004-.017-.017-.427c-.002-.01-.009-.017-.016-.018Zm.264-.113-.014.002-.184.093-.01.01-.003.011.018.43.005.012.008.008.201.092c.012.004.023 0 .029-.008l.004-.014-.034-.614c-.003-.012-.01-.02-.02-.022Zm-.715.002a.023.023 0 0 0-.027.006l-.006.014-.034.614c0 .012.007.02.017.024l.015-.002.201-.093.01-.008.003-.011.018-.43-.003-.012-.01-.01-.184-.092Z"/><path fill="#09244B" d="M17 13a4 4 0 1 1-4 4h-2a4 4 0 1 1-.535-2h3.07A3.998 3.998 0 0 1 17 13ZM7 15a2 2 0 1 0 0 4 2 2 0 0 0 0-4Zm10 0a2 2 0 1 0 0 4 2 2 0 0 0 0-4ZM15.306 3a3 3 0 0 1 2.924 2.328l.035.179.721 4.329.01.082L19 10h1a1 1 0 0 1 .117 1.993L20 12H4a1 1 0 0 1-.117-1.993L4 10h1l.003-.082.01-.082.722-4.33a3 3 0 0 1 2.777-2.5L8.694 3h6.612Zm0 2H8.694a1 1 0 0 0-.986.836L7.014 10h9.972l-.694-4.164A1 1 0 0 0 15.306 5Z"/></g></svg>
